X:1
T:Miss Rattray of Dalrullzian
C:Robert Petrie
S:Petrie's Collection of Strathspey Reels and Country Dances &amp;c., 1790
Z:Steve Wyrick <sjwyrick_nospam@ca.astound.net> 2/25/03
N:transcribed from Elke Baker, Glenelg
K:G
M:6/8
L:1/8
f|g2GB2d|gab agf|gfe dgc|Bdg G3|gfg dBG|gab a2g|fga AB^c|d3 d2c|!
BAG de=f|ede c3|edc efg|fef d3|cde edc|Bcd efg|BcB AGF|G3-G2D|!
G3A3|B3c3|dec B2A|GBg G2D|GFG AGA|BAB cde|dBG AFD|G3G2d|!
dBG dBG|e=fd c3|e^cA e^cA|fge d3|ece dBd|cBA B2G|EcB AGF|G3G2||
